X:19064
T:Sally in the Garden
T:Hog-Eye Man
R:Hornpipe
C:Trad.
O:USA
Z:Paul Hardy's Session Tunebook 2015 (see www.paulhardy.net). Creative Commons cc by-nc-sa licenced.
M:4/4
L:1/8
Q:1/4=160
K:Amin
AA|"Am"ABAG "Em"EGAB|"Am"c2 c2 "G"B4|"Am"ABAG "Em" EGAB|"G"G2GA "Em"GF E2|
"Am"ABAG "Em"EGAB|"Am"c2 d2 "Em"e4|"Am"e3f "Em"edBc|"G"d2 de dc B2|"Am" A4-A2:|
|:"Am"AB|cBAB cBAB|c2 d2 e2 AB|cBAB c2 d2|"Em"e2E2E2 AB|
"Am" cBAB cBAB|c2d2 e4|"Em" e3f edB2|"Am"c2cd "G"cBG2|"Am"A4-A2:|

